X:1
T:Scale Practice
M:4/4
L:1/2
Q:1/2=60
K:D
 DF | Ad | fa | d'a | fd | AF | DG | Bd | gb | d'b | fd | BG | D2|]
